X: 26144
T: McHugh's
R: reel
M: 4/4
K: Edorian
||B3A B2eB|dBAG FDFA|B3A B2eB|dBAF E2FA|
B3A B2eB|dBAG Fdcd|ABBA BeeB|dBAd BEE2||
ed B/c/d efge|fdad fdad|ed B/c/d efgf|fedf e3f|
ed B/c/d efge|fdad fdfa|~g2ge f2f2|edBd efed||

